app/dist/common/images/5e-advanced-materials-inc.svg

<svg height="18" viewBox="0 0 18 18" width="18" xmlns="http://www.w3.org/2000/svg"><path d="m0 0h18v18h-18z" fill="#f0f3fa"/><path d="m5.35 6h3.47l-.4 1h-2.4l-.42 1.14c1.57-.28 1.96.53 1.95.98 0 1.4-1.52 2.93-2.96 2.88a1.56 1.56 0 0 1 -1.59-1.33l1-.62c.07.27.35.81.95.83.76.01 1.33-.69 1.38-1.2.03-.4-.39-.66-.6-.68h-1.53z" fill="#373938"/><path d="m10.6 4h.7l-3.94 10h-.66zm4.4 2h-3.65l-.44 1h3.65zm-1.69 5h-3.77l-.44 1h3.77zm.19-2.5h-3.04l-.44 1h3.04z" fill="#a3cc00"/></svg>

<!-- by TradingView --><svg width="18" height="18" viewBox="0 0 18 18" xmlns="http://www.w3.org/2000/svg"><path fill="#F0F3FA" d="M0 0h18v18H0z"/><path d="M5.35 6h3.47l-.4 1h-2.4L5.6 8.14c1.57-.28 1.96.53 1.95.98 0 1.4-1.52 2.93-2.96 2.88A1.56 1.56 0 0 1 3 10.67l1-.62c.07.27.35.81.95.83.76.01 1.33-.69 1.38-1.2.03-.4-.39-.66-.6-.68H4.2l1.15-3Z" fill="#373938"/><path d="M10.6 4h.7L7.36 14H6.7L10.6 4ZM15 6h-3.65l-.44 1h3.65L15 6ZM13.31 11H9.54l-.44 1h3.77l.44-1ZM13.5 8.5h-3.04l-.44 1h3.04l.44-1Z" fill="#A3CC00"/></svg>
